figures-source/6.1.svg

<?xml version="1.0" encoding="utf-8"?>
<svg xmlns="http://www.w3.org/2000/svg" xmlns:xlink="http://www.w3.org/1999/xlink">
	<defs>
		<marker id="Arrow1Lend" orient="auto" refX="0.0" refY="0.0" style="overflow:visible;">
			
              
			<path d="M -10,0.0 L -10.0,-2.0 L 0.0,0.0 L -10.0,2.0 z " id="path3666" style="fill-rule:evenodd;stroke:#000000;stroke-width:1.0px;marker-start:none;"/>
			
            
		</marker>
	</defs>
	<g style="stroke:#000000;fill:#fff">
		<rect height="36.0" id="1356" rx="9.12321894009" ry="18.0" style="stroke:#616161;stroke-width:3.000000px;fill:#d3f5d6" width="44.637" x="90.363" y="138.74"/>
		<text id="1356_text" style="fill:#000000;stroke:#000000;stroke-width:0px;font-family: Courier New;font-size:19px" x="90.363" y="138.74">
			<tspan fill="#000000" font-family="Courier;" font-size="19.0px" id="1356_line1" stroke="#000000" text-align="center" text-anchor="middle" x="112.6815" y="166.24">
				A
			</tspan>
		</text>
		<rect height="36.0" id="1357" rx="9.12321894009" ry="18.0" style="stroke:#616161;stroke-width:3.000000px;fill:#d3f5d6" width="44.637" x="165.0" y="138.74"/>
		<text id="1357_text" style="fill:#000000;stroke:#000000;stroke-width:0px;font-family: Courier New;font-size:19px" x="165.0" y="138.74">
			<tspan fill="#000000" font-family="Courier;" font-size="19.0px" id="1357_line1" stroke="#000000" text-align="center" text-anchor="middle" x="187.3185" y="166.24">
				B
			</tspan>
		</text>
		<path d="M 163.5,156.74 L 136.5,156.74" id="1358" style="marker-start:none;stroke:#000000;marker-end:url(#Arrow1Lend);fill:none"/>
		<rect height="36.0" id="1359" rx="9.12321894009" ry="18.0" style="stroke:#616161;stroke-width:3.000000px;fill:#d3f5d6" width="44.637" x="239.637" y="138.74"/>
		<text id="1359_text" style="fill:#000000;stroke:#000000;stroke-width:0px;font-family: Courier New;font-size:19px" x="239.637" y="138.74">
			<tspan fill="#000000" font-family="Courier;" font-size="19.0px" id="1359_line1" stroke="#000000" text-align="center" text-anchor="middle" x="261.9555" y="166.24">
				E
			</tspan>
		</text>
		<path d="M 238.137,156.74 L 211.137,156.74" id="1360" style="marker-start:none;stroke:#000000;marker-end:url(#Arrow1Lend);fill:none"/>
		<rect height="36.0" id="1361" rx="9.12321894009" ry="18.0" style="stroke:#616161;stroke-width:3.000000px;fill:#d3f5d6" width="44.637" x="314.274" y="138.74"/>
		<text id="1361_text" style="fill:#000000;stroke:#000000;stroke-width:0px;font-family: Courier New;font-size:19px" x="314.274" y="138.74">
			<tspan fill="#000000" font-family="Courier;" font-size="19.0px" id="1361_line1" stroke="#000000" text-align="center" text-anchor="middle" x="336.5925" y="166.24">
				F
			</tspan>
		</text>
		<rect height="36.0" id="1362" rx="9.12321894009" ry="18.0" style="stroke:#616161;stroke-width:3.000000px;fill:#d3f5d6" width="44.637" x="239.637" y="196.0"/>
		<text id="1362_text" style="fill:#000000;stroke:#000000;stroke-width:0px;font-family: Courier New;font-size:19px" x="239.637" y="196.0">
			<tspan fill="#000000" font-family="Courier;" font-size="19.0px" id="1362_line1" stroke="#000000" text-align="center" text-anchor="middle" x="261.9555" y="223.5">
				C
			</tspan>
		</text>
		<rect height="36.0" id="1363" rx="9.12321894009" ry="18.0" style="stroke:#616161;stroke-width:3.000000px;fill:#d3f5d6" width="44.637" x="314.274" y="196.0"/>
		<text id="1363_text" style="fill:#000000;stroke:#000000;stroke-width:0px;font-family: Courier New;font-size:19px" x="314.274" y="196.0">
			<tspan fill="#000000" font-family="Courier;" font-size="19.0px" id="1363_line1" stroke="#000000" text-align="center" text-anchor="middle" x="336.5925" y="223.5">
				D
			</tspan>
		</text>
		<path d="M 241.374,198.21 L 207.9,172.53" id="1364" style="marker-start:none;stroke:#000000;marker-end:url(#Arrow1Lend);fill:none"/>
		<path d="M 312.774,214.0 L 285.774,214.0" id="1365" style="marker-start:none;stroke:#000000;marker-end:url(#Arrow1Lend);fill:none"/>
		<path d="M 312.774,156.74 L 285.774,156.74" id="1366" style="marker-start:none;stroke:#000000;marker-end:url(#Arrow1Lend);fill:none"/>
		<rect height="36.0" id="1352" style="stroke:#616161;stroke-width:2.000000px;fill:#eeeeee" width="70.0222" x="395.0" y="138.74"/>
		<text id="1352_text" style="fill:#cccccc;stroke:#cccccc;stroke-width:0px;font-family: Luxi Sans;font-size:10px" x="395.0" y="138.74">
			<tspan fill="#777777" font-family="LucidaGrande;" font-size="10.0px" id="1352_line1" stroke="#777777" text-align="center" text-anchor="middle" x="430.0111" y="161.74">
				master
			</tspan>
		</text>
		<path d="M 394.0,156.74 L 360.411,156.74" id="1367" style="marker-start:none;stroke:#000000;marker-end:url(#Arrow1Lend);fill:none"/>
		<rect height="36.0" id="1368" style="stroke:#616161;stroke-width:2.000000px;fill:#eeeeee" width="70.0222" x="395.0" y="196.0"/>
		<text id="1368_text" style="fill:#cccccc;stroke:#cccccc;stroke-width:0px;font-family: Luxi Sans;font-size:10px" x="395.0" y="196.0">
			<tspan fill="#777777" font-family="LucidaGrande;" font-size="10.0px" id="1368_line1" stroke="#777777" text-align="center" text-anchor="middle" x="430.0111" y="219.0">
				experiment
			</tspan>
		</text>
		<path d="M 394.0,214.0 L 360.411,214.0" id="1369" style="marker-start:none;stroke:#000000;marker-end:url(#Arrow1Lend);fill:none"/>
	</g>
</svg>

<svg xmlns:rdf="http://www.w3.org/1999/02/22-rdf-syntax-ns#" xmlns="http://www.w3.org/2000/svg" height="96.26" width="377.16" version="1.1" xmlns:cc="http://creativecommons.org/ns#" xmlns:dc="http://purl.org/dc/elements/1.1/">
 <metadata>
  <rdf:RDF>
   <cc:Work rdf:about="">
    <dc:format>image/svg+xml</dc:format>
    <dc:type rdf:resource="http://purl.org/dc/dcmitype/StillImage"/>
    <dc:title/>
   </cc:Work>
  </rdf:RDF>
 </metadata>
 <defs>
  <marker id="Arrow1Lend" refY="0" refX="0" orient="auto">
   <path style="marker-start:none;" d="m-10,0,0-2,10,2-10,2z" fill-rule="evenodd" stroke="#000" stroke-width="1px"/>
  </marker>
 </defs>
 <g transform="translate(-88.862999,-137.24001)">
  <rect rx="9.1232" ry="18" height="36" width="44.637" stroke="#616161" y="138.74" x="90.363" stroke-width="3px" fill="#d3f5d6"/>
  <text font-family="Courier New" font-size="19px" stroke="#000000" y="138.74001" x="90.362999" stroke-width="0px" fill="#000000">
   <tspan font-size="19px" fill="#000000" style="text-anchor:middle;text-align:center;" stroke="#000000" y="166.24001" x="112.6815" font-family="&apos;Courier" text-align="center">A</tspan>
  </text>
  <rect rx="9.1232" ry="18" height="36" width="44.637" stroke="#616161" y="138.74" x="165" stroke-width="3px" fill="#d3f5d6"/>
  <text font-family="Courier New" font-size="19px" stroke="#000000" y="138.74001" x="165" stroke-width="0px" fill="#000000">
   <tspan font-size="19px" fill="#000000" style="text-anchor:middle;text-align:center;" stroke="#000000" y="166.24001" x="187.3185" font-family="&apos;Courier" text-align="center">B</tspan>
  </text>
  <path style="marker-start:none;marker-end:url(#Arrow1Lend);" fill="none" d="m163.5,156.74-27,0" stroke="#000"/>
  <rect rx="9.1232" ry="18" height="36" width="44.637" stroke="#616161" y="138.74" x="239.64" stroke-width="3px" fill="#d3f5d6"/>
  <text font-family="Courier New" font-size="19px" stroke="#000000" y="138.74001" x="239.63699" stroke-width="0px" fill="#000000">
   <tspan font-size="19px" fill="#000000" style="text-anchor:middle;text-align:center;" stroke="#000000" y="166.24001" x="261.95551" font-family="&apos;Courier" text-align="center">E</tspan>
  </text>
  <path style="marker-start:none;marker-end:url(#Arrow1Lend);" fill="none" d="m238.14,156.74-27,0" stroke="#000"/>
  <rect rx="9.1232" ry="18" height="36" width="44.637" stroke="#616161" y="138.74" x="314.27" stroke-width="3px" fill="#d3f5d6"/>
  <text font-family="Courier New" font-size="19px" stroke="#000000" y="138.74001" x="314.27399" stroke-width="0px" fill="#000000">
   <tspan font-size="19px" fill="#000000" style="text-anchor:middle;text-align:center;" stroke="#000000" y="166.24001" x="336.5925" font-family="&apos;Courier" text-align="center">F</tspan>
  </text>
  <rect rx="9.1232" ry="18" height="36" width="44.637" stroke="#616161" y="196" x="239.64" stroke-width="3px" fill="#d3f5d6"/>
  <text font-family="Courier New" font-size="19px" stroke="#000000" y="196" x="239.63699" stroke-width="0px" fill="#000000">
   <tspan font-size="19px" fill="#000000" style="text-anchor:middle;text-align:center;" stroke="#000000" y="223.5" x="261.95551" font-family="&apos;Courier" text-align="center">C</tspan>
  </text>
  <rect rx="9.1232" ry="18" height="36" width="44.637" stroke="#616161" y="196" x="314.27" stroke-width="3px" fill="#d3f5d6"/>
  <text font-family="Courier New" font-size="19px" stroke="#000000" y="196" x="314.27399" stroke-width="0px" fill="#000000">
   <tspan font-size="19px" fill="#000000" style="text-anchor:middle;text-align:center;" stroke="#000000" y="223.5" x="336.5925" font-family="&apos;Courier" text-align="center">D</tspan>
  </text>
  <path style="marker-start:none;marker-end:url(#Arrow1Lend);" fill="none" d="M241.37,198.21,207.9,172.53" stroke="#000"/>
  <path style="marker-start:none;marker-end:url(#Arrow1Lend);" fill="none" d="m312.77,214-27,0" stroke="#000"/>
  <path style="marker-start:none;marker-end:url(#Arrow1Lend);" fill="none" d="m312.77,156.74-27,0" stroke="#000"/>
  <rect height="36" width="70.022" stroke="#616161" y="138.74" x="395" stroke-width="2px" fill="#EEE"/>
  <text font-family="Luxi Sans" font-size="10px" stroke="#cccccc" y="138.74001" x="395" stroke-width="0px" fill="#cccccc">
   <tspan font-size="10px" fill="#777777" style="text-anchor:middle;text-align:center;" stroke="#777777" y="161.74001" x="430.01111" font-family="&apos;LucidaGrande" text-align="center">master</tspan>
  </text>
  <path style="marker-start:none;marker-end:url(#Arrow1Lend);" fill="none" d="m394,156.74-33.589,0" stroke="#000"/>
  <rect height="36" width="70.022" stroke="#616161" y="196" x="395" stroke-width="2px" fill="#EEE"/>
  <text font-family="Luxi Sans" font-size="10px" stroke="#cccccc" y="196" x="395" stroke-width="0px" fill="#cccccc">
   <tspan font-size="10px" fill="#777777" style="text-anchor:middle;text-align:center;" stroke="#777777" y="219" x="430.01111" font-family="&apos;LucidaGrande" text-align="center">experiment</tspan>
  </text>
  <path style="marker-start:none;marker-end:url(#Arrow1Lend);" fill="none" d="m394,214-33.589,0" stroke="#000"/>
 </g>
</svg>
